Catalina-light/places/scalable/folder-open.svg

<?xml version="1.0" encoding="UTF-8" standalone="no"?>
<!-- Created with Inkscape (http://www.inkscape.org/) -->

<svg
   xmlns:dc="http://purl.org/dc/elements/1.1/"
   xmlns:cc="http://creativecommons.org/ns#"
   xmlns:rdf="http://www.w3.org/1999/02/22-rdf-syntax-ns#"
   xmlns:svg="http://www.w3.org/2000/svg"
   xmlns="http://www.w3.org/2000/svg"
   xmlns:xlink="http://www.w3.org/1999/xlink"
   xmlns:sodipodi="http://sodipodi.sourceforge.net/DTD/sodipodi-0.dtd"
   xmlns:inkscape="http://www.inkscape.org/namespaces/inkscape"
   version="1.1"
   id="svg2"
   width="128"
   height="128"
   viewBox="0 0 128 128"
   sodipodi:docname="folder_open.svg"
   inkscape:version="0.92.2 2405546, 2018-03-11">
  <metadata
     id="metadata8">
    <rdf:RDF>
      <cc:Work
         rdf:about="">
        <dc:format>image/svg+xml</dc:format>
        <dc:type
           rdf:resource="http://purl.org/dc/dcmitype/StillImage" />
        <dc:title></dc:title>
      </cc:Work>
    </rdf:RDF>
  </metadata>
  <defs
     id="defs6">
    <linearGradient
       inkscape:collect="always"
       id="linearGradient993">
      <stop
         style="stop-color:#94dcff;stop-opacity:1;"
         offset="0"
         id="stop989" />
      <stop
         style="stop-color:#b5e7fc;stop-opacity:1"
         offset="1"
         id="stop991" />
    </linearGradient>
    <linearGradient
       inkscape:collect="always"
       id="linearGradient846">
      <stop
         style="stop-color:#a2ecff;stop-opacity:0.98823529"
         offset="0"
         id="stop842" />
      <stop
         style="stop-color:#b5e7fc;stop-opacity:1"
         offset="1"
         id="stop844" />
    </linearGradient>
    <linearGradient
       inkscape:collect="always"
       id="linearGradient838">
      <stop
         style="stop-color:#a3f2ff;stop-opacity:1;"
         offset="0"
         id="stop834" />
      <stop
         style="stop-color:#6ecaf5;stop-opacity:1"
         offset="1"
         id="stop836" />
    </linearGradient>
    <linearGradient
       inkscape:collect="always"
       id="linearGradient830">
      <stop
         style="stop-color:#5fccf8;stop-opacity:1"
         offset="0"
         id="stop826" />
      <stop
         id="stop1054"
         offset="0.34999999"
         style="stop-color:#74d2f8;stop-opacity:1" />
      <stop
         id="stop987"
         offset="0.69999999"
         style="stop-color:#83d7f9;stop-opacity:1;" />
      <stop
         style="stop-color:#67cef8;stop-opacity:1"
         offset="1"
         id="stop828" />
    </linearGradient>
    <linearGradient
       inkscape:collect="always"
       xlink:href="#linearGradient830"
       id="linearGradient832"
       x1="198.80731"
       y1="44.91272"
       x2="198.80731"
       y2="103.5906"
       gradientUnits="userSpaceOnUse"
       gradientTransform="translate(-138.83263,16.874684)" />
    <linearGradient
       inkscape:collect="always"
       xlink:href="#linearGradient838"
       id="linearGradient840"
       x1="208.54581"
       y1="76.00473"
       x2="208.54581"
       y2="38.852192"
       gradientUnits="userSpaceOnUse"
       gradientTransform="translate(-138.83263,16.874684)" />
    <linearGradient
       inkscape:collect="always"
       xlink:href="#linearGradient846"
       id="linearGradient848"
       x1="201.19809"
       y1="26.49403"
       x2="201.19809"
       y2="49.504963"
       gradientUnits="userSpaceOnUse"
       gradientTransform="translate(-138.83263,16.874684)" />
    <linearGradient
       id="linearGradient4885">
      <stop
         id="stop4881"
         offset="0"
         style="stop-color:#1296d5;stop-opacity:1;" />
      <stop
         id="stop4883"
         offset="1"
         style="stop-color:#4fb6e8;stop-opacity:1" />
    </linearGradient>
    <style
       type="text/css"
       id="current-color-scheme">
      .ColorScheme-Text {
        color:#4d4d4d;
      }
      </style>
    <linearGradient
       id="linearGradient3866">
      <stop
         style="stop-color:#000000;stop-opacity:0.52083331"
         offset="0"
         id="stop3868" />
      <stop
         style="stop-color:#2883c3;stop-opacity:0;"
         offset="1"
         id="stop3870" />
    </linearGradient>
    <linearGradient
       id="linearGradient3874">
      <stop
         style="stop-color:#000d0e;stop-opacity:0.84105963;"
         offset="0"
         id="stop3876" />
      <stop
         style="stop-color:#000000;stop-opacity:0;"
         offset="1"
         id="stop3878" />
    </linearGradient>
    <style
       type="text/css"
       id="current-color-scheme-3">
      .ColorScheme-Text {
        color:#4d4d4d;
      }
      </style>
    <linearGradient
       gradientTransform="matrix(3.4414163,0,0,3.4414163,-217.59008,-162.01326)"
       gradientUnits="userSpaceOnUse"
       y2="77.951225"
       x2="40.407059"
       y1="61.076542"
       x1="40.32296"
       id="linearGradient4887"
       xlink:href="#linearGradient4885" />
    <linearGradient
       inkscape:collect="always"
       xlink:href="#linearGradient993"
       id="linearGradient995"
       x1="201.19809"
       y1="26.49403"
       x2="201.19809"
       y2="49.504963"
       gradientUnits="userSpaceOnUse"
       gradientTransform="translate(-138.83263,16.874684)" />
    <linearGradient
       inkscape:collect="always"
       xlink:href="#linearGradient838"
       id="linearGradient1056"
       gradientUnits="userSpaceOnUse"
       x1="208.54581"
       y1="76.00473"
       x2="208.54581"
       y2="38.852192"
       gradientTransform="translate(-138.83263,16.874684)" />
  </defs>
  <sodipodi:namedview
     pagecolor="#ffffff"
     bordercolor="#666666"
     borderopacity="1"
     objecttolerance="10"
     gridtolerance="10"
     guidetolerance="10"
     inkscape:pageopacity="0"
     inkscape:pageshadow="2"
     inkscape:window-width="1920"
     inkscape:window-height="1031"
     id="namedview4"
     showgrid="false"
     inkscape:measure-start="0,0"
     inkscape:measure-end="0,0"
     inkscape:zoom="1.3037281"
     inkscape:cx="230.1155"
     inkscape:cy="48.814926"
     inkscape:window-x="0"
     inkscape:window-y="26"
     inkscape:window-maximized="1"
     inkscape:current-layer="svg2" />
  <path
     style="opacity:1;fill:url(#linearGradient995);fill-opacity:1;stroke:url(#linearGradient848);stroke-width:1;stroke-linecap:round;stroke-linejoin:round;stroke-miterlimit:4;stroke-dasharray:none;stroke-dashoffset:0;stroke-opacity:1;paint-order:fill markers stroke"
     d="m 16.112034,39.627652 c -4.0539,0.142608 -7.3222703,3.265859 -7.3222703,7.322266 v 39.246888 l 99.3067163,0.798581 c 4.24421,0 7.66211,-3.415952 7.66211,-7.660156 V 54.792262 c 0,-4.244204 -3.4179,-7.660156 -7.66211,-7.660156 H 47.699744 c -1.34227,0 -3.67806,-8.271485 -9.78336,-8.271485 z"
     id="rect817"
     inkscape:connector-curvature="0"
     sodipodi:nodetypes="ssccsssccs" />
  <path
     style="opacity:1;fill:url(#linearGradient832);fill-opacity:1;stroke:url(#linearGradient840);stroke-width:1;stroke-linecap:round;stroke-linejoin:round;stroke-miterlimit:4;stroke-dasharray:none;stroke-dashoffset:0;stroke-opacity:1;paint-order:fill markers stroke"
     d="M 4.2888137,57.591997 H 123.35207 c 0.95096,0 1.82126,0.771356 1.71653,1.716527 l -6.82385,61.582456 c -0.10473,0.94517 -0.76556,1.71531 -1.71653,1.71653 l -105.607316,0.1356 c -0.9509603,0.001 -1.6149303,-0.77103 -1.7165303,-1.71653 l -6.63209,-61.718056 c -0.1016,-0.945514 0.76557,-1.716527 1.71653,-1.716527 z"
     id="rect823"
     inkscape:connector-curvature="0"
     sodipodi:nodetypes="sssssssss" />
  <path
     style="color:#000000;font-style:normal;font-variant:normal;font-weight:normal;font-stretch:normal;font-size:medium;line-height:normal;font-family:sans-serif;font-variant-ligatures:normal;font-variant-position:normal;font-variant-caps:normal;font-variant-numeric:normal;font-variant-alternates:normal;font-feature-settings:normal;text-indent:0;text-align:start;text-decoration:none;text-decoration-line:none;text-decoration-style:solid;text-decoration-color:#000000;letter-spacing:normal;word-spacing:normal;text-transform:none;writing-mode:lr-tb;direction:ltr;text-orientation:mixed;dominant-baseline:auto;baseline-shift:baseline;text-anchor:start;white-space:normal;shape-padding:0;clip-rule:nonzero;display:inline;overflow:visible;visibility:visible;opacity:1;isolation:auto;mix-blend-mode:normal;color-interpolation:sRGB;color-interpolation-filters:linearRGB;solid-color:#000000;solid-opacity:1;vector-effect:none;fill:#2d5c81;fill-opacity:0.07224337;fill-rule:nonzero;stroke:none;stroke-width:1px;stroke-linecap:butt;stroke-linejoin:miter;stroke-miterlimit:4;stroke-dasharray:none;stroke-dashoffset:0;stroke-opacity:1;color-rendering:auto;image-rendering:auto;shape-rendering:auto;text-rendering:auto;enable-background:accumulate"
     d="m 8.9154237,118.34148 0.10742,1 H 118.41737 l 0.11133,-1 z"
     id="path997"
     inkscape:connector-curvature="0" />
  <path
     style="color:#000000;font-style:normal;font-variant:normal;font-weight:normal;font-stretch:normal;font-size:medium;line-height:normal;font-family:sans-serif;font-variant-ligatures:normal;font-variant-position:normal;font-variant-caps:normal;font-variant-numeric:normal;font-variant-alternates:normal;font-feature-settings:normal;text-indent:0;text-align:start;text-decoration:none;text-decoration-line:none;text-decoration-style:solid;text-decoration-color:#000000;letter-spacing:normal;word-spacing:normal;text-transform:none;writing-mode:lr-tb;direction:ltr;text-orientation:mixed;dominant-baseline:auto;baseline-shift:baseline;text-anchor:start;white-space:normal;shape-padding:0;clip-rule:nonzero;display:inline;overflow:visible;visibility:visible;opacity:1;isolation:auto;mix-blend-mode:normal;color-interpolation:sRGB;color-interpolation-filters:linearRGB;solid-color:#000000;solid-opacity:1;vector-effect:none;fill:#ffffff;fill-opacity:0.13688211;fill-rule:nonzero;stroke:none;stroke-width:1px;stroke-linecap:butt;stroke-linejoin:miter;stroke-miterlimit:4;stroke-dasharray:none;stroke-dashoffset:0;stroke-opacity:1;color-rendering:auto;image-rendering:auto;shape-rendering:auto;text-rendering:auto;enable-background:accumulate"
     d="m 9.0228437,119.34148 0.10742,1 H 118.30604 l 0.11133,-1 z"
     id="path1003"
     inkscape:connector-curvature="0" />
  <path
     style="color:#000000;font-style:normal;font-variant:normal;font-weight:normal;font-stretch:normal;font-size:medium;line-height:normal;font-family:sans-serif;font-variant-ligatures:normal;font-variant-position:normal;font-variant-caps:normal;font-variant-numeric:normal;font-variant-alternates:normal;font-feature-settings:normal;text-indent:0;text-align:start;text-decoration:none;text-decoration-line:none;text-decoration-style:solid;text-decoration-color:#000000;letter-spacing:normal;word-spacing:normal;text-transform:none;writing-mode:lr-tb;direction:ltr;text-orientation:mixed;dominant-baseline:auto;baseline-shift:baseline;text-anchor:start;white-space:normal;shape-padding:0;clip-rule:nonzero;display:inline;overflow:visible;visibility:visible;opacity:1;isolation:auto;mix-blend-mode:normal;color-interpolation:sRGB;color-interpolation-filters:linearRGB;solid-color:#000000;solid-opacity:1;vector-effect:none;fill:#2d5c81;fill-opacity:0.07224337;fill-rule:nonzero;stroke:none;stroke-width:1px;stroke-linecap:butt;stroke-linejoin:miter;stroke-miterlimit:4;stroke-dasharray:none;stroke-dashoffset:0;stroke-opacity:1;color-rendering:auto;image-rendering:auto;shape-rendering:auto;text-rendering:auto;enable-background:accumulate"
     d="m 8.5521437,114.95086 0.10742,1 H 118.79237 l 0.11133,-1 z"
     id="path1005"
     inkscape:connector-curvature="0" />
  <path
     style="color:#000000;font-style:normal;font-variant:normal;font-weight:normal;font-stretch:normal;font-size:medium;line-height:normal;font-family:sans-serif;font-variant-ligatures:normal;font-variant-position:normal;font-variant-caps:normal;font-variant-numeric:normal;font-variant-alternates:normal;font-feature-settings:normal;text-indent:0;text-align:start;text-decoration:none;text-decoration-line:none;text-decoration-style:solid;text-decoration-color:#000000;letter-spacing:normal;word-spacing:normal;text-transform:none;writing-mode:lr-tb;direction:ltr;text-orientation:mixed;dominant-baseline:auto;baseline-shift:baseline;text-anchor:start;white-space:normal;shape-padding:0;clip-rule:nonzero;display:inline;overflow:visible;visibility:visible;opacity:1;isolation:auto;mix-blend-mode:normal;color-interpolation:sRGB;color-interpolation-filters:linearRGB;solid-color:#000000;solid-opacity:1;vector-effect:none;fill:#ffffff;fill-opacity:0.13688211;fill-rule:nonzero;stroke:none;stroke-width:1px;stroke-linecap:butt;stroke-linejoin:miter;stroke-miterlimit:4;stroke-dasharray:none;stroke-dashoffset:0;stroke-opacity:1;color-rendering:auto;image-rendering:auto;shape-rendering:auto;text-rendering:auto;enable-background:accumulate"
     d="m 8.6595637,115.95086 0.10742,0.99999 H 118.68104 l 0.11133,-0.99999 z"
     id="path1007"
     inkscape:connector-curvature="0" />
  <path
     style="color:#000000;font-style:normal;font-variant:normal;font-weight:normal;font-stretch:normal;font-size:medium;line-height:normal;font-family:sans-serif;font-variant-ligatures:normal;font-variant-position:normal;font-variant-caps:normal;font-variant-numeric:normal;font-variant-alternates:normal;font-feature-settings:normal;text-indent:0;text-align:start;text-decoration:none;text-decoration-line:none;text-decoration-style:solid;text-decoration-color:#000000;letter-spacing:normal;word-spacing:normal;text-transform:none;writing-mode:lr-tb;direction:ltr;text-orientation:mixed;dominant-baseline:auto;baseline-shift:baseline;text-anchor:start;white-space:normal;shape-padding:0;clip-rule:nonzero;display:inline;overflow:visible;visibility:visible;opacity:1;isolation:auto;mix-blend-mode:normal;color-interpolation:sRGB;color-interpolation-filters:linearRGB;solid-color:#000000;solid-opacity:1;vector-effect:none;fill:#2d5c81;fill-opacity:0.07224337;fill-rule:nonzero;stroke:none;stroke-width:1px;stroke-linecap:butt;stroke-linejoin:miter;stroke-miterlimit:4;stroke-dasharray:none;stroke-dashoffset:0;stroke-opacity:1;color-rendering:auto;image-rendering:auto;shape-rendering:auto;text-rendering:auto;enable-background:accumulate"
     d="m 8.1576037,111.2907 0.10743,1 H 119.19862 l 0.11133,-1 z"
     id="path1009"
     inkscape:connector-curvature="0" />
  <path
     style="color:#000000;font-style:normal;font-variant:normal;font-weight:normal;font-stretch:normal;font-size:medium;line-height:normal;font-family:sans-serif;font-variant-ligatures:normal;font-variant-position:normal;font-variant-caps:normal;font-variant-numeric:normal;font-variant-alternates:normal;font-feature-settings:normal;text-indent:0;text-align:start;text-decoration:none;text-decoration-line:none;text-decoration-style:solid;text-decoration-color:#000000;letter-spacing:normal;word-spacing:normal;text-transform:none;writing-mode:lr-tb;direction:ltr;text-orientation:mixed;dominant-baseline:auto;baseline-shift:baseline;text-anchor:start;white-space:normal;shape-padding:0;clip-rule:nonzero;display:inline;overflow:visible;visibility:visible;opacity:1;isolation:auto;mix-blend-mode:normal;color-interpolation:sRGB;color-interpolation-filters:linearRGB;solid-color:#000000;solid-opacity:1;vector-effect:none;fill:#ffffff;fill-opacity:0.13688211;fill-rule:nonzero;stroke:none;stroke-width:1px;stroke-linecap:butt;stroke-linejoin:miter;stroke-miterlimit:4;stroke-dasharray:none;stroke-dashoffset:0;stroke-opacity:1;color-rendering:auto;image-rendering:auto;shape-rendering:auto;text-rendering:auto;enable-background:accumulate"
     d="m 8.2650337,112.2907 0.10742,1 H 119.08729 l 0.11133,-1 z"
     id="path1011"
     inkscape:connector-curvature="0" />
  <path
     sodipodi:nodetypes="sssssssss"
     inkscape:connector-curvature="0"
     id="path1052"
     d="M 4.2888137,57.591997 H 123.35207 c 0.95096,0 1.82126,0.771356 1.71653,1.716527 l -6.82385,61.582456 c -0.10473,0.94517 -0.76556,1.71531 -1.71653,1.71653 l -105.607316,0.1356 c -0.9509603,0.001 -1.6149303,-0.77103 -1.7165303,-1.71653 l -6.63209,-61.718056 c -0.1016,-0.945514 0.76557,-1.716527 1.71653,-1.716527 z"
     style="opacity:1;fill:none;fill-opacity:1;stroke:url(#linearGradient1056);stroke-width:1;stroke-linecap:round;stroke-linejoin:round;stroke-miterlimit:4;stroke-dasharray:none;stroke-dashoffset:0;stroke-opacity:1;paint-order:fill markers stroke" />
</svg>

<svg width="128" height="128" version="1.1" viewBox="0 0 128 128" xmlns="http://www.w3.org/2000/svg">
<defs>
<linearGradient id="linearGradient832" x1="198.81" x2="198.81" y1="44.913" y2="103.59" gradientTransform="translate(-138.83 16.875)" gradientUnits="userSpaceOnUse"/>
<linearGradient id="linearGradient840" x1="208.55" x2="208.55" y1="76.005" y2="38.852" gradientTransform="translate(-138.83 16.875)" gradientUnits="userSpaceOnUse"/>
<linearGradient id="linearGradient848" x1="201.2" x2="201.2" y1="26.494" y2="49.505" gradientTransform="translate(-138.83 16.875)" gradientUnits="userSpaceOnUse"/>
<style id="current-color-scheme" type="text/css">.ColorScheme-Text {
        color:#4d4d4d;
      }</style>
<style id="current-color-scheme-3" type="text/css">.ColorScheme-Text {
        color:#4d4d4d;
      }</style>
</defs>
<path d="m16.112 39.628c-4.0539 0.14261-7.3223 3.2659-7.3223 7.3223v39.247l99.307 0.79858c4.2442 0 7.6621-3.416 7.6621-7.6602v-24.543c0-4.2442-3.4179-7.6602-7.6621-7.6602h-60.397c-1.3423 0-3.6781-8.2715-9.7834-8.2715z" fill="url(#linearGradient848)" stroke="url(#linearGradient848)" stroke-linecap="round" stroke-linejoin="round" style="paint-order:fill markers stroke"/>
<path d="m4.2888 57.592h119.06c0.95096 0 1.8213 0.77136 1.7165 1.7165l-6.8238 61.582c-0.10473 0.94517-0.76556 1.7153-1.7165 1.7165l-105.61 0.1356c-0.95096 1e-3 -1.6149-0.77103-1.7165-1.7165l-6.6321-61.718c-0.1016-0.94551 0.76557-1.7165 1.7165-1.7165z" fill="url(#linearGradient832)" stroke="url(#linearGradient840)" stroke-linecap="round" stroke-linejoin="round" style="paint-order:fill markers stroke"/>
<path d="m8.9154 118.34 0.10742 1h109.39l0.11133-1z" color="#000000" color-rendering="auto" dominant-baseline="auto" fill="#2d5c81" fill-opacity=".072243" image-rendering="auto" shape-rendering="auto" solid-color="#000000" style="font-feature-settings:normal;font-variant-alternates:normal;font-variant-caps:normal;font-variant-ligatures:normal;font-variant-numeric:normal;font-variant-position:normal;isolation:auto;mix-blend-mode:normal;shape-padding:0;text-decoration-color:#000000;text-decoration-line:none;text-decoration-style:solid;text-indent:0;text-orientation:mixed;text-transform:none;white-space:normal"/>
<path d="m9.0228 119.34 0.10742 1h109.18l0.11133-1z" color="#000000" color-rendering="auto" dominant-baseline="auto" fill="#fff" fill-opacity=".13688" image-rendering="auto" shape-rendering="auto" solid-color="#000000" style="font-feature-settings:normal;font-variant-alternates:normal;font-variant-caps:normal;font-variant-ligatures:normal;font-variant-numeric:normal;font-variant-position:normal;isolation:auto;mix-blend-mode:normal;shape-padding:0;text-decoration-color:#000000;text-decoration-line:none;text-decoration-style:solid;text-indent:0;text-orientation:mixed;text-transform:none;white-space:normal"/>
<path d="m8.5521 114.95 0.10742 1h110.13l0.11133-1z" color="#000000" color-rendering="auto" dominant-baseline="auto" fill="#2d5c81" fill-opacity=".072243" image-rendering="auto" shape-rendering="auto" solid-color="#000000" style="font-feature-settings:normal;font-variant-alternates:normal;font-variant-caps:normal;font-variant-ligatures:normal;font-variant-numeric:normal;font-variant-position:normal;isolation:auto;mix-blend-mode:normal;shape-padding:0;text-decoration-color:#000000;text-decoration-line:none;text-decoration-style:solid;text-indent:0;text-orientation:mixed;text-transform:none;white-space:normal"/>
<path d="m8.6596 115.95 0.10742 0.99999h109.91l0.11133-0.99999z" color="#000000" color-rendering="auto" dominant-baseline="auto" fill="#fff" fill-opacity=".13688" image-rendering="auto" shape-rendering="auto" solid-color="#000000" style="font-feature-settings:normal;font-variant-alternates:normal;font-variant-caps:normal;font-variant-ligatures:normal;font-variant-numeric:normal;font-variant-position:normal;isolation:auto;mix-blend-mode:normal;shape-padding:0;text-decoration-color:#000000;text-decoration-line:none;text-decoration-style:solid;text-indent:0;text-orientation:mixed;text-transform:none;white-space:normal"/>
<path d="m8.1576 111.29 0.10743 1h110.93l0.11133-1z" color="#000000" color-rendering="auto" dominant-baseline="auto" fill="#2d5c81" fill-opacity=".072243" image-rendering="auto" shape-rendering="auto" solid-color="#000000" style="font-feature-settings:normal;font-variant-alternates:normal;font-variant-caps:normal;font-variant-ligatures:normal;font-variant-numeric:normal;font-variant-position:normal;isolation:auto;mix-blend-mode:normal;shape-padding:0;text-decoration-color:#000000;text-decoration-line:none;text-decoration-style:solid;text-indent:0;text-orientation:mixed;text-transform:none;white-space:normal"/>
<path d="m8.265 112.29 0.10742 1h110.71l0.11133-1z" color="#000000" color-rendering="auto" dominant-baseline="auto" fill="#fff" fill-opacity=".13688" image-rendering="auto" shape-rendering="auto" solid-color="#000000" style="font-feature-settings:normal;font-variant-alternates:normal;font-variant-caps:normal;font-variant-ligatures:normal;font-variant-numeric:normal;font-variant-position:normal;isolation:auto;mix-blend-mode:normal;shape-padding:0;text-decoration-color:#000000;text-decoration-line:none;text-decoration-style:solid;text-indent:0;text-orientation:mixed;text-transform:none;white-space:normal"/>
<path d="m4.2888 57.592h119.06c0.95096 0 1.8213 0.77136 1.7165 1.7165l-6.8238 61.582c-0.10473 0.94517-0.76556 1.7153-1.7165 1.7165l-105.61 0.1356c-0.95096 1e-3 -1.6149-0.77103-1.7165-1.7165l-6.6321-61.718c-0.1016-0.94551 0.76557-1.7165 1.7165-1.7165z" fill="none" stroke="url(#linearGradient840)" stroke-linecap="round" stroke-linejoin="round" style="paint-order:fill markers stroke"/>
</svg>
